!!!COM: Ernest Reyer
!!!CNT: Francais
!!!TXO: Francais
!!!OTL: Vielle Chanson (Pourquoi ne m'aimez~vous?)
!!!LYR: Mathurin Re/gnier
!!!ENC: Jacob Pegg
!!!YOR: Romantic French Song 1830-1870 -David Tunley, ed.,
!!!YOR: New York: Garland Publishing, Inc., 1995,
!!!YOR: Vol. 1 - 'Early Romances'
!!!ODT: 1869/
!!NB: Vocal melody and text only encoded.
!!NB: First instance of melodic material only encoded.
**kern	**silbe
*clef G2	*
*k[f#]	*
*M2/4	*
=1	=1
4r	.
{8g	{Si
8g	votre
=2	=2
4a	oeil
8cc	tout
8ee	ar-
=3	=3
4.dd	-dent
8b	d'a-
=4	=4
8cc	-mour
8a	et
8a	de
8f#	lu-
=5	=5
(8a	-mi-
16g)}	-e\re,}
16r	.
{8g	{De
8f#	mon
=6	=6
4e	coeur,
8f#	votre
8f#	es-
=7	=7
4g	-clave,
8a	est
8a	la
=8	=8
4b	flam-
8cc#	-me
8cc#	pre-
=9	=9
[8dd	-mi-
16dd]}	-e\re,}
16r	.
{4ee	{Que
=10	=10
8b	comme
8b	un
8b	as-
8ee	-tre
=11	=11
4gg	saint
8ff#	je
8ee	re/-
=12	=12
4ee	-ve\re
8b	a\
8cc#	ge-
=13	=13
4dd}	-noux,}
{(4ccn	{Pour-
=14	=14
8e)	-quoi
8e	ne
8f#	m'ai-
8a	-mez~
=15	=15
4g}	~vous?}
4r	.
=16	=16
2r	.
=17	=17
4r	.
4r	.
=18	=18
8r	.
8r	.
4r	.
=19	=19
4r	.
8r	.
{8g	{At-
=20	=20
8g	-ten-
8g	-dez~
8a	~vous
8a	qu'un
=21	=21
4b	jour
8b	un
8b	re-
=22	=22
4cc	-gret
8a	vous
8cc	sais-
=23	=23
[4b	-si-
8b]}	-se,}
{8b	{C'est
=24	=24
8b	a\
8b	trop
8b	d'in-
8ee	-te/-
=25	=25
4ee	-re^ts
8cc	in-
8a	-fli-
=26	=26
4g	-ger
8a	un
8b	sup-
=27	=27
[4f#	-pli-
16f#]}	-ce;}
16r	.
{8f#	{Mais
=28	=28
8f#	puis-
8b	-que
8dd#	nous
8ff#	vi-
=29	=29
4ff#	-vons
8f#	en
8b	un
=30	=30
4cc#	a^-
8ee	-ge
8a#	si
=31	=31
4b}	doux,}
{(4ccn	{Pour-
=32	=32
8e)	-quoi
8e	ne
8f#	m'ai-
8a	-mez~
=33	=33
4g}	~vous?}
4r	.
=34	=34
4r	.
4r	.
=35	=35
2r	.
=36	=36
4r	.
8r	.
8r	.
=37	=37
4r	.
8r	.
{8g	{Fas-
=38	=38
8g	-se
8g	le
8a	ciel
8a	qu'un
=39	=39
4b-	jour
8cc	vous
8ee-	puis-
=40	=40
4dd	-siez
8cc	re-
8b-	-con-
=41	=41
[8a	-nai^-
16a]}	-tre}
16r	.
{8a	{Que
8cc	mon
=42	=42
4cc	mal
8b-	a
8g	de
=43	=43
4a	vous
8a	son
8cc	es-
=44	=44
4cc	-sence
8b-	et
8g	son
=45	=45
[4a	e^-
16a]}	-tre;}
16r	.
{8a	{Mais,
=46	=46
8a	Dieu!
8cc	puis-
8cc	-qu'il
8ee-	est
=47	=47
4dd	vrai,
8dd	yeux
8dd	qui
=48	=48
4dd	m'e^-
8cc	-tes
8dd	si
=49	=49
(ccq	doux
4a;)	|
(4cc	Pour-
=50	=50
8en)	-quoi
8en	ne
8f#	m'ai-
8a	-mez~
=51	=51
4g}	~vous?}
4r	.
*-	*-
